X:7253
T:The Rakes of Kinsale
O:england
B:Joyce, P. W.; "Old Irish Folk Music and Songs"
R:jig
L:1/8
M:C
K:G
E|GBG FAF|GEE E2 F|GBG FAG|FDD DEF|
GFG AGA|Bde/f/ gfe|dBG AGF|GEE E2:|
|:D|G3/2A/B/c/ dBG|BAB dBG|A3/2B/c/d/ ecA|cBc/d/ ecA|
G3/2A/B/c/ dAd|egf/a/ gfe|dBG AGF|GEE E2:|
|:f|gbg faf|gee e2 f gbg fag|fdd def|
g/a/bg f/g/af|egf/a/ gfe|dBG AGF|GEE E2:|
|:a|gdB AGF|GEE E2 f|gdB ABG|FDD DEF|
GFG AGB/c/|def gfe|dBG AGF|GEE E2:|


